X:1
T:Sweetly Dawns the Sabbath Morning
T:Sweetly Dawns the Sabbath Morning
T:Arranged by A. Rhodes
T:Thomas Bowman Stephenson, 1879
T:Public Domain Courtesy of the Cyber Hymnal™
T:Public Domain Courtesy of the Cyber Hymnal™
C:Arranged by A. Rhodes
Z:Public Domain
Z:Courtesy of the Cyber Hymnal™
%%score ( 1 2 ) ( 3 4 )
L:1/8
Q:1/4=115
M:9/8
K:Ab
V:1 treble 
V:2 treble 
V:3 bass 
V:4 bass 
V:1
 ([Ec][=D=B])[Ec] | [CA]3 [CE]3 ([Ec][=D=B])[Ec] | [CA]3 [CE]3 [CA]2 [Ec] | %3
w: 1.~Sweet- * ly|dawns the Sab- * bath|morn- ing On the|
w: 2.~’Tis * the|day when man’s * Re-|deem- er Rose tri-|
w: 3.~’Tis * the|day whose rest * and|glad- ness Show what|
w: 4.~’Tis * the|day whose calm, * so|ho- ly Sha- dows|
 [EB]3- [EB]2 E [EA]2 [EB] | [Ec]6 ([Ec][=D=B])[Ec] | [CA]3 [CE]3 ([Ec][=D=B])[Ec] | %6
w: world, * so full of|care; Bid- * ding|man for- get * his|
w: umph- * ant o’er the|grave; Seal- * ing|thus His work * com-|
w: all * my life should|be; Yield- * ing|all by faith * to|
w: forth * the bet- ter|rest, Where * the|crown- èd saints * are|
 [CA]3 [CE]3 [CA]2 [Ec] | [FB]3- [FB]2 [DF] (GF)[DE] | [CA]3- [CA]2 [CE] [EA]2 [EB] | %9
w: la- bor, Call- ing|to * the house * of|prayer. * O sweet and|
w: plet- ed, Tell- ing|thus * His power * to|save. * Then loud and|
w: Je- sus, Find- ing|Je- * sus all * in|me. * O how I|
w: sing- ing With their|Lord, * su- preme- * ly|blest, * ’Twill not be|
 [Ec]3- [Ec]2 [CA] [Ec]2 [Ed] | [Ee]6- [Ee]2 [Ae] | [Ge]2 [GB] [GB]2 [Ac] ([Bd][Ac])[GB] | %12
w: strong, * His saints a-|mong, * We|sing to God our Sab- * bath|
w: long, * to Christ so|strong * To|save the lost, we raise * our|
w: long, * in Christ made|strong, * To|sing each day faith’s Sab- * bath|
w: long, * till ’mid that|throng, * We|sing th’e- ter- nal Sab- * bath|
 [Ac]3- [Ac]2 E [EA]2 [EB] | [Ec]3- [Ec]2 [CA] [Ec]2 [Ed] | [Ee]6- [Ee]2 [Ae] | %15
w: song, * Our Sab- bath|song, * our Sab- bath|song, * We|
w: song, * Our Sab- bath|song, * our Sab- bath|song, * We|
w: song, * Faith’s Sab- bath|song, * faith’s Sab- bath|song, * I’d|
w: Song, * Heav’n’s Sab- bath|song, * Heav’n’s Sab- bath|song, * We’ll|
 [Ge]2 [GB] [GB]2 [Bd] [Ac]2 [GB] | A6 |] %17
w: raise to Christ our Sab- bath|song.|
w: raise to Christ our Sab- bath|song.|
w: sing each day faith’s Sab- bath|song.|
w: sing th’e- ter- nal Sab- bath|song.|
V:2
 x3 | x9 | x9 | x5 E x3 | x9 | x9 | x9 | x6 D2 x | x9 | x9 | x9 | x9 | x5 E x3 | x9 | x9 | x9 | %16
 A6 |] %17
V:3
 [A,,E,]2 [A,,E,] | [A,,E,]3 [A,,A,]3 [A,,E,]2 [A,,E,] | [A,,E,]3 [A,,A,]3 A,2 A, | %3
 [E,G,]3- [E,G,]2 [E,G,] [C,A,]2 [E,G,] | A,6 [A,,A,]2 [A,,A,] | %5
 [A,,E,]3 [A,,A,]3 [A,,A,]2 [A,,A,] | [A,,F,]3 [A,,A,]3 A,2 A, | %7
 [D,A,]3- [D,A,]2 [D,B,] (B,A,)[E,G,] | [A,,A,]3- [A,,A,]2 [A,,A,] [C,A,]2 [E,G,] | %9
 A,3- A,2 A, A,2 [A,B,] | [A,C]6- [A,C]2 [A,C] | [E,B,]2 [E,E] [E,E]2 [E,F] [E,E]2 [E,E] | %12
 [A,,E]3- [A,,E]2 E, [C,A,]2 [E,G,] | A,3- A,2 [A,,A,] [A,,A,]2 [B,,G,] | [C,A,]6- [C,A,]2 [C,B,] | %15
 [E,B,]2 [D,E] [D,E]2 [D,E] [D,E]2 [E,D] | [A,,C]6 |] %17
V:4
 x3 | x9 | x6 A,2 A, | x9 | A,6 x3 | x9 | x6 A,2 A, | x6 E,2 x | x9 | A,3- A,2 A, A,2 x | x9 | x9 | %12
 x5 E, x3 | A,3- A,2 x4 | x9 | x9 | x6 |] %17

